floristman/img/sprite/whatsapp.svg

<svg width="50" height="50" viewBox="0 0 50 50" fill="none" xmlns="http://www.w3.org/2000/svg">
<path d="M25 2C12.3099 2 2 12.3099 2 25C2 29.0794 3.11849 32.8854 4.98437 36.2083L2.03776 46.7305C1.94141 47.0729 2.03516 47.4414 2.28255 47.6966C2.52995 47.9518 2.89453 48.056 3.24089 47.9701L14.2109 45.2513C17.4349 46.9727 21.0924 48 25 48C37.6901 48 48 37.6901 48 25C48 12.3099 37.6901 2 25 2ZM25 4C36.6094 4 46 13.3906 46 25C46 36.6094 36.6094 46 25 46C21.2786 46 17.7917 45.03 14.7617 43.3333C14.5404 43.2096 14.2799 43.1758 14.0325 43.2357L4.42578 45.6172L7.0013 36.4258C7.07682 36.1628 7.04036 35.8815 6.90234 35.6458C5.0612 32.5234 4 28.8906 4 25C4 13.3906 13.3906 4 25 4ZM16.6432 13C16.0013 13 15.0859 13.2383 14.3346 14.0495C13.8828 14.5352 12 16.3698 12 19.5938C12 22.9557 14.332 25.8555 14.6133 26.2292H14.6159V26.2305C14.5885 26.1953 14.9727 26.7526 15.487 27.4206C16 28.0872 16.7174 28.9648 17.6198 29.9141C19.4232 31.8125 21.9583 34.0078 25.1055 35.3503C26.5547 35.9661 27.6979 36.3398 28.5651 36.612C30.1693 37.1159 31.6315 37.0391 32.7305 36.8776C33.5521 36.7565 34.457 36.3607 35.3516 35.7943C36.2461 35.2292 37.1237 34.5247 37.5104 33.4557C37.7865 32.6888 37.9271 31.9792 37.9792 31.3971C38.0039 31.1055 38.0078 30.8477 37.9883 30.6094C37.9687 30.3711 37.9896 30.1888 37.7682 29.8242C37.3021 29.0599 36.7747 29.0404 36.2253 28.7682C35.9193 28.6159 35.0482 28.1914 34.1758 27.776C33.3034 27.3594 32.5495 26.9922 32.0846 26.8268C31.7904 26.7201 31.431 26.5677 30.9141 26.6276C30.3971 26.6862 29.8854 27.0586 29.5885 27.5C29.306 27.918 28.1706 29.2578 27.8242 29.6523C27.819 29.6497 27.8503 29.6628 27.7135 29.5964C27.2852 29.3841 26.7617 29.2031 25.987 28.7943C25.2109 28.3867 24.2422 27.7826 23.1823 26.8477V26.8451C21.6029 25.4557 20.4974 23.7109 20.1484 23.125C20.1719 23.0977 20.1458 23.1315 20.1953 23.082L20.1979 23.0794C20.5534 22.7292 20.8698 22.3099 21.1367 22.0013C21.5156 21.5664 21.6823 21.181 21.8633 20.8216C22.224 20.1068 22.0234 19.319 21.8151 18.9036V18.9023C21.8294 18.931 21.7018 18.6497 21.5651 18.3255C21.4271 18.0013 21.2513 17.5794 21.0651 17.1302C20.6901 16.2331 20.2721 15.2253 20.0234 14.6341V14.6328C19.7305 13.9375 19.3346 13.4375 18.8164 13.1953C18.2982 12.9531 17.8411 13.0221 17.8229 13.0208H17.8203C17.4505 13.0039 17.0456 13 16.6432 13ZM16.6432 15C17.0286 15 17.4089 15.0052 17.7266 15.0195C18.0547 15.0365 18.0339 15.0378 17.9714 15.0078C17.9062 14.9779 17.9935 14.9688 18.1797 15.4102C18.4232 15.9883 18.8437 16.9987 19.2187 17.901C19.4062 18.3516 19.582 18.7734 19.7227 19.1055C19.8633 19.4375 19.9388 19.6224 20.0273 19.7995V19.8008L20.0299 19.8034C20.1159 19.974 20.1081 19.8646 20.0781 19.9245C19.8672 20.3424 19.8385 20.4453 19.625 20.6914C19.2995 21.0664 18.9687 21.4831 18.793 21.6563C18.6393 21.8073 18.362 22.0417 18.1901 22.5026C18.0156 22.9622 18.0977 23.5951 18.375 24.0664C18.7448 24.694 19.9648 26.6797 21.8594 28.3477C23.0534 29.3997 24.1641 30.0964 25.0521 30.5651C25.9414 31.0326 26.6641 31.306 26.8255 31.3867C27.2109 31.5768 27.6302 31.7253 28.1185 31.6667C28.6081 31.6068 29.0286 31.3112 29.2969 31.0078L29.2982 31.0065C29.6562 30.6016 30.7161 29.3906 31.224 28.6445C31.2461 28.6523 31.2396 28.6458 31.4075 28.707V28.7096H31.4102C31.487 28.737 32.4544 29.1693 33.3164 29.5807C34.1784 29.9909 35.0534 30.418 35.3372 30.5586C35.7487 30.7617 35.9427 30.8945 35.9922 30.8945C35.9961 30.9831 35.9987 31.0781 35.9857 31.2227C35.9518 31.6237 35.8437 32.1797 35.6289 32.776C35.5234 33.0664 34.9753 33.668 34.2825 34.1055C33.5911 34.543 32.7487 34.8529 32.4375 34.8984C31.5 35.0365 30.3867 35.0872 29.1641 34.7031C28.3164 34.4375 27.2591 34.0925 25.8906 33.5104C23.1146 32.3255 20.7552 30.3112 19.0703 28.5378C18.2279 27.6497 17.5521 26.8242 17.0716 26.1992C16.5924 25.5755 16.3841 25.2513 16.2083 25.0221L16.207 25.0195C15.8971 24.6094 14 21.9714 14 19.5938C14 17.0781 15.168 16.0911 15.8008 15.4102C16.1328 15.0521 16.4961 15 16.6419 15H16.6432Z" fill="#EB8671"/>
</svg>

<svg width="50" height="50" fill="none" xmlns="http://www.w3.org/2000/svg"><path d="M25 2C12.31 2 2 12.31 2 25c0 4.08 1.118 7.885 2.984 11.208L2.038 46.731a1 1 0 0 0 1.203 1.24l10.97-2.72C17.435 46.973 21.092 48 25 48c12.69 0 23-10.31 23-23S37.69 2 25 2zm0 2c11.61 0 21 9.39 21 21s-9.39 21-21 21c-3.721 0-7.208-.97-10.238-2.667a1.008 1.008 0 0 0-.73-.097l-9.606 2.381L7 36.426a.998.998 0 0 0-.099-.78A20.88 20.88 0 0 1 4 25C4 13.39 13.39 4 25 4zm-8.357 9c-.642 0-1.557.238-2.308 1.05-.452.485-2.335 2.32-2.335 5.544 0 3.362 2.332 6.261 2.613 6.635h.003v.002a31.652 31.652 0 0 0 3.004 3.684c1.803 1.898 4.338 4.093 7.485 5.435 1.45.616 2.593.99 3.46 1.262 1.604.504 3.066.427 4.165.266.822-.121 1.727-.517 2.622-1.084.894-.565 1.772-1.27 2.158-2.338a8.355 8.355 0 0 0 .47-2.059c.024-.291.028-.55.008-.788s.002-.42-.22-.785c-.466-.764-.993-.784-1.543-1.056-.306-.152-1.177-.577-2.05-.992-.872-.417-1.625-.784-2.09-.95-.295-.106-.654-.258-1.17-.198-.518.058-1.03.43-1.326.872-.283.418-1.418 1.758-1.765 2.152-.005-.002.026.01-.11-.056-.429-.212-.952-.393-1.727-.802a14.172 14.172 0 0 1-2.805-1.946v-.003c-1.58-1.39-2.685-3.134-3.034-3.72.024-.027-.002.006.047-.043l.003-.003c.355-.35.672-.77.939-1.078.379-.435.545-.82.726-1.18.361-.714.16-1.502-.048-1.917v-.002c.014.029-.113-.252-.25-.576-.138-.325-.314-.747-.5-1.196-.375-.897-.793-1.905-1.042-2.496v-.001c-.293-.695-.688-1.195-1.207-1.438-.518-.242-.975-.173-.993-.174h-.003c-.37-.017-.774-.021-1.177-.021zm0 2c.386 0 .766.005 1.084.02.328.017.307.018.244-.012-.065-.03.023-.04.209.402.243.578.664 1.589 1.039 2.491.187.45.363.872.504 1.204.14.332.216.517.304.694v.002l.003.002c.086.171.078.062.048.121-.21.418-.24.521-.453.767-.326.375-.656.792-.832.965-.154.151-.431.386-.603.847-.174.46-.092 1.092.185 1.563.37.628 1.59 2.614 3.484 4.282a16.388 16.388 0 0 0 3.193 2.217c.89.468 1.612.741 1.774.822.385.19.804.338 1.293.28.49-.06.91-.356 1.178-.66h.001c.358-.405 1.418-1.616 1.926-2.363.022.008.016.002.183.063v.003h.003c.077.027 1.044.46 1.906.87.862.41 1.737.838 2.021.979.412.203.606.335.655.335a2.24 2.24 0 0 1-.006.329 6.336 6.336 0 0 1-.357 1.553c-.106.29-.654.892-1.346 1.33-.692.437-1.534.747-1.846.792-.937.138-2.05.19-3.273-.195a33.436 33.436 0 0 1-3.273-1.193c-2.776-1.184-5.136-3.199-6.82-4.972a29.96 29.96 0 0 1-2-2.339c-.479-.623-.687-.948-.863-1.177l-.001-.002C15.897 24.61 14 21.97 14 19.593c0-2.516 1.168-3.503 1.8-4.184.333-.358.696-.41.842-.41h.001z" fill="#EB8671"/></svg>
